X:97
T:Jamie (Jim) MacNeil's March
R:hornpipe
C:Bruce Osborne - Apr. 2005
Z:abc by bosborne@kos.net
M:4/4
L:1/8
K:Amaj
A>B|c2 c>B A<cA>E|F<AD>F E2 C>D|E>AA>c e<cA>c|e<cA>c (3BcB A>B|\
c2 c>B A<cA>E|F<AD>F E2 C>D|E>AA>c e<cA>c|d<BG>B A2:|
|:C>D|E>AA>c e<cA>B|c<AF<A E2 C>D|E>AA>c e<cA>c|e<cA>c (3BcB A>F|\
E>AA>c e<cA>B|c<AF<A E2 C>D|E>AA>c e<cA>c|d<BG>B A2:|

